build/images/icons/svg/la.svg

<svg xmlns="http://www.w3.org/2000/svg" width="20" height="11"><path fill-rule="evenodd" fill="#FF6B08" d="M20 5.784l-6.679 5.209-1.307-1.065 4.676-3.647H0V4.719h16.693l-4.679-3.65L13.321.005 20 5.214l-.35.285.35.285zm-2.406-.208l.099-.077-.099-.078v.155z"/></svg>

<svg 
 xmlns="http://www.w3.org/2000/svg"
 xmlns:xlink="http://www.w3.org/1999/xlink"
 width="20px" height="11px">
<path fill-rule="evenodd"  fill="rgb(255, 107, 8)"
 d="M20.000,5.784 L13.321,10.993 L12.014,9.928 L16.690,6.281 L0.000,6.281 L0.000,4.719 L16.693,4.719 L12.014,1.069 L13.321,0.005 L20.000,5.214 L19.650,5.499 L20.000,5.784 ZM17.594,5.576 L17.693,5.499 L17.594,5.421 L17.594,5.576 Z"/>
</svg>
